X: 21721
T: SPEED THE PLOUGH
C: John Morehead, 1800.
%R: hornpipe, reel
B: W. Hamilton "Universal Tune-Book" Vol. 2 Glasgow 1846 p.172 #1
S: http://s3-eu-west-1.amazonaws.com/itma.dl.printmaterial/book_pdfs/hamiltonvol2web.pdf
Z: 2016 John Chambers <jc:trillian.mit.edu>
M: C|
L: 1/8
K: A
%%center This melody was first called "The Naval Pillar."
% - - - - - - - - - - - - - - - - - - - - - - - - -
[|\
A>AA>c e>fe>c | e>ae>c e>fe>c |\
d>ed>B c>dc>A | FB {c}BA GB B2 |\
A>AA>c e>fe>c |
e>ae>c e>fe>c |\
d>ec>d B>cA>B | F>AG>B A2A |]\
z |\
a>aa>A a>Ae>A | a>Ag>A f>Ae>A |
d>d.>B c>cc>A | F<BB>A G>BB>e |\
c//B//A3/ e>A a>Ae>A | f>dB>f e>cA>e |\
d>ec>d B>cA>B | F>BG>E A2A2 |]
%%sep 1 1 300
% - - - - - - - - - - - - - - - - - - - - - - - - -

%%sep 1 1 500
%%sep 1 1 500

